svg/system/heartbeat_line.svg

<?xml version="1.0" encoding="UTF-8"?>
<svg width="24px" height="24px" viewBox="0 0 24 24" version="1.1" xmlns="http://www.w3.org/2000/svg" xmlns:xlink="http://www.w3.org/1999/xlink">
    <title>heartbeat_line</title>
    <g id="Icon" stroke="none" stroke-width="1" fill="none" fill-rule="evenodd">
        <g id="System" transform="translate(-768.000000, -384.000000)">
            <g id="heartbeat_line" transform="translate(768.000000, 384.000000)">
                <path d="M24,0 L24,24 L0,24 L0,0 L24,0 Z M12.5935,23.2578 L12.5819,23.2595 L12.5109,23.295 L12.4919,23.2987 L12.4767,23.295 L12.4057,23.2595 C12.3958,23.2564 12.387,23.259 12.3821,23.2649 L12.378,23.2758 L12.3609,23.7031 L12.3659,23.7235 L12.3769,23.7357 L12.4805,23.8097 L12.4953,23.8136 L12.5071,23.8097 L12.6107,23.7357 L12.6233,23.7197 L12.6267,23.7031 L12.6096,23.2758 C12.6076,23.2657 12.601,23.2593 12.5935,23.2578 Z M12.8584,23.1453 L12.8445,23.1473 L12.6598,23.2397 L12.6499,23.2499 L12.6472,23.2611 L12.6651,23.6906 L12.6699,23.7034 L12.6784,23.7105 L12.8793,23.8032 C12.8914,23.8069 12.9022,23.803 12.9078,23.7952 L12.9118,23.7812 L12.8777,23.1665 C12.8753,23.1546 12.8674,23.147 12.8584,23.1453 Z M12.143,23.1473 C12.1332,23.1424 12.1222,23.1453 12.1156,23.1526 L12.1099,23.1665 L12.0758,23.7812 C12.0751,23.7927 12.0828,23.8019 12.0926,23.8046 L12.1083,23.8032 L12.3092,23.7105 L12.3186,23.7024 L12.3225,23.6906 L12.3404,23.2611 L12.3372,23.2485 L12.3278,23.2397 L12.143,23.1473 Z" id="MingCute" fill-rule="nonzero"></path>
                <path d="M9.51436,2.99999615 C9.95701,3.00646 10.3428,3.3031 10.4627,3.72926 L14.1359,16.7896 L16.0637,11.6489 C16.21,11.2586 16.5832,10.9999962 17,10.9999962 L20,10.9999962 C20.5523,10.9999962 21,11.4477 21,11.9999962 C21,12.5523 20.5523,12.9999962 20,12.9999962 L17.693,12.9999962 L14.9363,20.3511 C14.7845,20.756 14.3897,21.0174 13.9577,20.9991 C13.5257,20.9808 13.1544,20.687 13.0373,20.2707 L9.44954,7.51409 L7.95448,12.2983 C7.82402,12.7158 7.43739,12.9999962 7,12.9999962 L4,12.9999962 C3.44772,12.9999962 3,12.5523 3,11.9999962 C3,11.4477 3.44772,10.9999962 4,10.9999962 L6.26481,10.9999962 L8.54552,3.70173 C8.67756,3.27918 9.07171,2.99375 9.51436,2.99999615 Z" id="路径" fill="#09244B"></path>
            </g>
        </g>
    </g>
</svg>

<svg xmlns="http://www.w3.org/2000/svg" width="24" height="24"><g fill="none" fill-rule="evenodd"><path d="M24 0v24H0V0h24ZM12.594 23.258l-.012.002-.071.035-.02.004-.014-.004-.071-.036c-.01-.003-.019 0-.024.006l-.004.01-.017.428.005.02.01.013.104.074.015.004.012-.004.104-.074.012-.016.004-.017-.017-.427c-.002-.01-.009-.017-.016-.018Zm.264-.113-.014.002-.184.093-.01.01-.003.011.018.43.005.012.008.008.201.092c.012.004.023 0 .029-.008l.004-.014-.034-.614c-.003-.012-.01-.02-.02-.022Zm-.715.002a.023.023 0 0 0-.027.006l-.006.014-.034.614c0 .012.007.02.017.024l.015-.002.201-.093.01-.008.003-.011.018-.43-.003-.012-.01-.01-.184-.092Z"/><path fill="#09244B" d="M9.514 3a1 1 0 0 1 .949.73l3.673 13.06 1.928-5.141A1 1 0 0 1 17 11h3a1 1 0 1 1 0 2h-2.307l-2.757 7.351a1 1 0 0 1-1.899-.08L9.45 7.514l-1.496 4.784A1 1 0 0 1 7 13H4a1 1 0 1 1 0-2h2.265l2.28-7.298A1 1 0 0 1 9.516 3Z"/></g></svg>
